bootstrap/file-earmark-music-fill.svg

<svg xmlns="http://www.w3.org/2000/svg" width="16" height="16" fill="currentColor" class="bi bi-file-earmark-music-fill" viewBox="0 0 16 16">
  <path d="M9.293 0H4a2 2 0 0 0-2 2v12a2 2 0 0 0 2 2h8a2 2 0 0 0 2-2V4.707A1 1 0 0 0 13.707 4L10 .293A1 1 0 0 0 9.293 0M9.5 3.5v-2l3 3h-2a1 1 0 0 1-1-1M11 6.64v1.75l-2 .5v3.61c0 .495-.301.883-.662 1.123C7.974 13.866 7.499 14 7 14s-.974-.134-1.338-.377C5.302 13.383 5 12.995 5 12.5s.301-.883.662-1.123C6.026 11.134 6.501 11 7 11c.356 0 .7.068 1 .196V6.89a1 1 0 0 1 .757-.97l1-.25A1 1 0 0 1 11 6.64"/>
</svg>

<svg viewBox="0 0 16 16" xmlns="http://www.w3.org/2000/svg"><path d="M9.293 0H4v0C2.89 0 2 .89 2 2v12 0c0 1.1.89 2 2 2h8v0c1.1 0 2-.9 2-2V4.7v-.001c-.01-.27-.11-.52-.3-.71L9.99.28V.28c-.19-.19-.45-.3-.71-.3Zm.2 3.5v-2l3 3h-2v0c-.56 0-1-.45-1-1Zm1.5 3.14v1.75l-2 .5v3.61c0 .49-.31.88-.67 1.12 -.37.24-.84.37-1.34.37 -.5 0-.98-.14-1.338-.38 -.36-.24-.67-.63-.67-1.13 0-.5.3-.89.66-1.13 .36-.25.83-.38 1.338-.38 .35 0 .7.06 1 .19V6.854H7.97c0-.46.31-.86.75-.97l1-.25v0c.53-.14 1.07.19 1.21.72 .01.07.02.16.02.24Z"/></svg>
